frontend/images/prima_pagina/icona_fullscreen_on.svg

<svg xmlns="http://www.w3.org/2000/svg" height="48" width="48"><path d="M10 38v-9.65h3V35h6.65v3Zm0-18.35V10h9.65v3H13v6.65ZM28.35 38v-3H35v-6.65h3V38ZM35 19.65V13h-6.65v-3H38v9.65Z"/></svg>

<svg width="48" height="48" viewBox="0 0 48 48" fill="none" xmlns="http://www.w3.org/2000/svg">
<path d="M10 38V28.35H13V35H19.65V38H10ZM10 19.65V10H19.65V13H13V19.65H10ZM28.35 38V35H35V28.35H38V38H28.35ZM35 19.65V13H28.35V10H38V19.65H35Z" fill="#FDFCFA"/>
</svg>
